images/50455537.svg

<?xml version="1.0" encoding="UTF-8"?>
<svg xmlns="http://www.w3.org/2000/svg" xmlns:xlink="http://www.w3.org/1999/xlink" width="300pt" height="300pt" viewBox="0 0 300 300" version="1.1">
<defs>
<g>
<symbol overflow="visible" id="glyph0-0">
<path style="stroke:none;" d="M 0.453125 1.59375 L 0.453125 -6.34375 L 4.953125 -6.34375 L 4.953125 1.59375 Z M 0.953125 1.09375 L 4.453125 1.09375 L 4.453125 -5.84375 L 0.953125 -5.84375 Z M 0.953125 1.09375 "/>
</symbol>
<symbol overflow="visible" id="glyph0-1">
<path style="stroke:none;" d="M 3.546875 -5.953125 C 2.898438 -5.953125 2.382812 -5.710938 2 -5.234375 C 1.625 -4.753906 1.4375 -4.101562 1.4375 -3.28125 C 1.4375 -2.445312 1.625 -1.789062 2 -1.3125 C 2.382812 -0.832031 2.898438 -0.59375 3.546875 -0.59375 C 4.191406 -0.59375 4.703125 -0.832031 5.078125 -1.3125 C 5.453125 -1.789062 5.640625 -2.445312 5.640625 -3.28125 C 5.640625 -4.101562 5.453125 -4.753906 5.078125 -5.234375 C 4.703125 -5.710938 4.191406 -5.953125 3.546875 -5.953125 Z M 3.546875 -6.6875 C 4.460938 -6.6875 5.195312 -6.375 5.75 -5.75 C 6.300781 -5.132812 6.578125 -4.3125 6.578125 -3.28125 C 6.578125 -2.238281 6.300781 -1.410156 5.75 -0.796875 C 5.195312 -0.179688 4.460938 0.125 3.546875 0.125 C 2.617188 0.125 1.878906 -0.179688 1.328125 -0.796875 C 0.773438 -1.410156 0.5 -2.238281 0.5 -3.28125 C 0.5 -4.3125 0.773438 -5.132812 1.328125 -5.75 C 1.878906 -6.375 2.617188 -6.6875 3.546875 -6.6875 Z M 3.546875 -6.6875 "/>
</symbol>
<symbol overflow="visible" id="glyph0-2">
<path style="stroke:none;" d="M 0.890625 -6.5625 L 2.078125 -6.5625 L 4.984375 -1.078125 L 4.984375 -6.5625 L 5.84375 -6.5625 L 5.84375 0 L 4.65625 0 L 1.75 -5.484375 L 1.75 0 L 0.890625 0 Z M 0.890625 -6.5625 "/>
</symbol>
<symbol overflow="visible" id="glyph0-3">
<path style="stroke:none;" d="M 0.890625 -6.5625 L 1.765625 -6.5625 L 1.765625 -3.875 L 5 -3.875 L 5 -6.5625 L 5.890625 -6.5625 L 5.890625 0 L 5 0 L 5 -3.125 L 1.765625 -3.125 L 1.765625 0 L 0.890625 0 Z M 0.890625 -6.5625 "/>
</symbol>
</g>
</defs>
<g id="surface11909">
<rect x="0" y="0" width="300" height="300" style="fill:rgb(100%,100%,100%);fill-opacity:1;stroke:none;"/>
<path style="fill:none;stroke-width:1.2;stroke-linecap:butt;stroke-linejoin:miter;stroke:rgb(100%,0%,0%);stroke-opacity:1;stroke-miterlimit:10;" d="M 39.316406 166.480469 L 49.34375 167.601562 "/>
<path style="fill:none;stroke-width:1.2;stroke-linecap:butt;stroke-linejoin:miter;stroke:rgb(0%,0%,0%);stroke-opacity:1;stroke-miterlimit:10;" d="M 49.34375 167.601562 L 59.375 168.71875 "/>
<path style="fill:none;stroke-width:1.2;stroke-linecap:butt;stroke-linejoin:miter;stroke:rgb(0%,0%,0%);stroke-opacity:1;stroke-miterlimit:10;" d="M 35.25 146.714844 L 37.285156 156.597656 "/>
<path style="fill:none;stroke-width:1.2;stroke-linecap:butt;stroke-linejoin:miter;stroke:rgb(100%,0%,0%);stroke-opacity:1;stroke-miterlimit:10;" d="M 37.285156 156.597656 L 39.316406 166.480469 "/>
<path style=" stroke:none;fill-rule:nonzero;fill:rgb(100%,100%,100%);fill-opacity:1;" d="M 35.316406 160.980469 L 43.316406 160.980469 L 43.316406 171.980469 L 35.316406 171.980469 Z M 35.316406 160.980469 "/>
<g style="fill:rgb(100%,0%,0%);fill-opacity:1;">
  <use xlink:href="#glyph0-1" x="35.316406" y="169.643555"/>
</g>
<path style="fill:none;stroke-width:1.2;stroke-linecap:butt;stroke-linejoin:miter;stroke:rgb(0%,0%,0%);stroke-opacity:1;stroke-miterlimit:10;" d="M 59.375 168.71875 L 67.699219 150.339844 "/>
<path style="fill:none;stroke-width:1.2;stroke-linecap:butt;stroke-linejoin:miter;stroke:rgb(0%,0%,0%);stroke-opacity:1;stroke-miterlimit:10;" d="M 55.882812 164.921875 L 62.542969 150.21875 "/>
<path style="fill:none;stroke-width:1.2;stroke-linecap:butt;stroke-linejoin:miter;stroke:rgb(0%,0%,0%);stroke-opacity:1;stroke-miterlimit:10;" d="M 67.699219 150.339844 L 52.792969 136.738281 "/>
<path style="fill:none;stroke-width:1.2;stroke-linecap:butt;stroke-linejoin:miter;stroke:rgb(0%,0%,0%);stroke-opacity:1;stroke-miterlimit:10;" d="M 67.699219 150.339844 L 87.46875 146.269531 "/>
<path style="fill:none;stroke-width:1.2;stroke-linecap:butt;stroke-linejoin:miter;stroke:rgb(0%,0%,0%);stroke-opacity:1;stroke-miterlimit:10;" d="M 52.792969 136.738281 L 35.25 146.714844 "/>
<path style="fill:none;stroke-width:1.2;stroke-linecap:butt;stroke-linejoin:miter;stroke:rgb(0%,0%,0%);stroke-opacity:1;stroke-miterlimit:10;" d="M 53.386719 141.863281 L 39.351562 149.84375 "/>
<path style="fill:none;stroke-width:1.2;stroke-linecap:butt;stroke-linejoin:miter;stroke:rgb(0%,0%,0%);stroke-opacity:1;stroke-miterlimit:10;" d="M 87.46875 146.269531 L 100.875 161.355469 "/>
<path style="fill:none;stroke-width:1.2;stroke-linecap:butt;stroke-linejoin:miter;stroke:rgb(0%,0%,0%);stroke-opacity:1;stroke-miterlimit:10;" d="M 92.355469 144.625 L 103.082031 156.691406 "/>
<path style="fill:none;stroke-width:1.2;stroke-linecap:butt;stroke-linejoin:miter;stroke:rgb(0%,0%,0%);stroke-opacity:1;stroke-miterlimit:10;" d="M 93.828125 127.117188 L 87.46875 146.269531 "/>
<path style="fill:none;stroke-width:1.2;stroke-linecap:butt;stroke-linejoin:miter;stroke:rgb(0%,0%,0%);stroke-opacity:1;stroke-miterlimit:10;" d="M 100.875 161.355469 L 110.757812 159.320312 "/>
<path style="fill:none;stroke-width:1.2;stroke-linecap:butt;stroke-linejoin:miter;stroke:rgb(0%,0%,100%);stroke-opacity:1;stroke-miterlimit:10;" d="M 110.757812 159.320312 L 120.640625 157.289062 "/>
<path style="fill:none;stroke-width:1.2;stroke-linecap:butt;stroke-linejoin:miter;stroke:rgb(0%,0%,100%);stroke-opacity:1;stroke-miterlimit:10;" d="M 120.640625 157.289062 L 123.820312 147.710938 "/>
<path style="fill:none;stroke-width:1.2;stroke-linecap:butt;stroke-linejoin:miter;stroke:rgb(0%,0%,0%);stroke-opacity:1;stroke-miterlimit:10;" d="M 123.820312 147.710938 L 127 138.136719 "/>
<path style="fill:none;stroke-width:1.2;stroke-linecap:butt;stroke-linejoin:miter;stroke:rgb(0%,0%,100%);stroke-opacity:1;stroke-miterlimit:10;" d="M 116.769531 153.875 L 119.3125 146.214844 "/>
<path style="fill:none;stroke-width:1.2;stroke-linecap:butt;stroke-linejoin:miter;stroke:rgb(0%,0%,0%);stroke-opacity:1;stroke-miterlimit:10;" d="M 119.3125 146.214844 L 121.859375 138.554688 "/>
<path style=" stroke:none;fill-rule:nonzero;fill:rgb(100%,100%,100%);fill-opacity:1;" d="M 117.640625 151.789062 L 124.640625 151.789062 L 124.640625 162.789062 L 117.640625 162.789062 Z M 117.640625 151.789062 "/>
<g style="fill:rgb(0%,0%,100%);fill-opacity:1;">
  <use xlink:href="#glyph0-2" x="117.640625" y="160.452148"/>
</g>
<path style="fill:none;stroke-width:1.2;stroke-linecap:butt;stroke-linejoin:miter;stroke:rgb(0%,0%,0%);stroke-opacity:1;stroke-miterlimit:10;" d="M 127 138.136719 L 113.59375 123.050781 "/>
<path style="fill:none;stroke-width:1.2;stroke-linecap:butt;stroke-linejoin:miter;stroke:rgb(0%,0%,0%);stroke-opacity:1;stroke-miterlimit:10;" d="M 127 138.136719 L 146.765625 134.066406 "/>
<path style="fill:none;stroke-width:1.2;stroke-linecap:butt;stroke-linejoin:miter;stroke:rgb(0%,0%,0%);stroke-opacity:1;stroke-miterlimit:10;" d="M 113.59375 123.050781 L 93.828125 127.117188 "/>
<path style="fill:none;stroke-width:1.2;stroke-linecap:butt;stroke-linejoin:miter;stroke:rgb(0%,0%,0%);stroke-opacity:1;stroke-miterlimit:10;" d="M 112.574219 128.109375 L 96.761719 131.363281 "/>
<path style="fill:none;stroke-width:1.2;stroke-linecap:butt;stroke-linejoin:miter;stroke:rgb(0%,0%,0%);stroke-opacity:1;stroke-miterlimit:10;" d="M 93.828125 127.117188 L 87.125 119.578125 "/>
<path style="fill:none;stroke-width:1.2;stroke-linecap:butt;stroke-linejoin:miter;stroke:rgb(100%,0%,0%);stroke-opacity:1;stroke-miterlimit:10;" d="M 87.125 119.578125 L 80.421875 112.035156 "/>
<path style=" stroke:none;fill-rule:nonzero;fill:rgb(100%,100%,100%);fill-opacity:1;" d="M 65.421875 106.535156 L 80.421875 106.535156 L 80.421875 117.535156 L 65.421875 117.535156 Z M 65.421875 106.535156 "/>
<g style="fill:rgb(100%,0%,0%);fill-opacity:1;">
  <use xlink:href="#glyph0-3" x="65.421875" y="115.198242"/>
  <use xlink:href="#glyph0-1" x="72.436523" y="115.198242"/>
</g>
<path style="fill:none;stroke-width:1.2;stroke-linecap:butt;stroke-linejoin:miter;stroke:rgb(0%,0%,0%);stroke-opacity:1;stroke-miterlimit:10;" d="M 146.765625 134.066406 L 153.46875 141.609375 "/>
<path style="fill:none;stroke-width:1.2;stroke-linecap:butt;stroke-linejoin:miter;stroke:rgb(0%,0%,100%);stroke-opacity:1;stroke-miterlimit:10;" d="M 153.46875 141.609375 L 160.171875 149.152344 "/>
<path style="fill:none;stroke-width:1.2;stroke-linecap:butt;stroke-linejoin:miter;stroke:rgb(0%,0%,100%);stroke-opacity:1;stroke-miterlimit:10;" d="M 160.171875 149.152344 L 170.054688 147.117188 "/>
<path style="fill:none;stroke-width:1.2;stroke-linecap:butt;stroke-linejoin:miter;stroke:rgb(0%,0%,0%);stroke-opacity:1;stroke-miterlimit:10;" d="M 170.054688 147.117188 L 179.9375 145.085938 "/>
<path style=" stroke:none;fill-rule:nonzero;fill:rgb(100%,100%,100%);fill-opacity:1;" d="M 153.171875 143.652344 L 167.171875 143.652344 L 167.171875 154.652344 L 153.171875 154.652344 Z M 153.171875 143.652344 "/>
<g style="fill:rgb(0%,0%,100%);fill-opacity:1;">
  <use xlink:href="#glyph0-2" x="153.171875" y="152.31543"/>
  <use xlink:href="#glyph0-3" x="160.149414" y="152.31543"/>
</g>
<path style="fill:none;stroke-width:1.2;stroke-linecap:butt;stroke-linejoin:miter;stroke:rgb(0%,0%,0%);stroke-opacity:1;stroke-miterlimit:10;" d="M 179.9375 145.085938 L 193.34375 160.167969 "/>
<path style="fill:none;stroke-width:1.2;stroke-linecap:butt;stroke-linejoin:miter;stroke:rgb(0%,0%,0%);stroke-opacity:1;stroke-miterlimit:10;" d="M 177.730469 149.746094 L 188.453125 161.816406 "/>
<path style="fill:none;stroke-width:1.2;stroke-linecap:butt;stroke-linejoin:miter;stroke:rgb(0%,0%,0%);stroke-opacity:1;stroke-miterlimit:10;" d="M 193.34375 160.167969 L 213.109375 156.101562 "/>
<path style="fill:none;stroke-width:1.2;stroke-linecap:butt;stroke-linejoin:miter;stroke:rgb(0%,0%,0%);stroke-opacity:1;stroke-miterlimit:10;" d="M 193.34375 160.167969 L 186.984375 179.320312 "/>
<path style="fill:none;stroke-width:1.2;stroke-linecap:butt;stroke-linejoin:miter;stroke:rgb(0%,0%,0%);stroke-opacity:1;stroke-miterlimit:10;" d="M 213.109375 156.101562 L 226.515625 171.1875 "/>
<path style="fill:none;stroke-width:1.2;stroke-linecap:butt;stroke-linejoin:miter;stroke:rgb(0%,0%,0%);stroke-opacity:1;stroke-miterlimit:10;" d="M 219.472656 136.949219 L 213.109375 156.101562 "/>
<path style="fill:none;stroke-width:1.2;stroke-linecap:butt;stroke-linejoin:miter;stroke:rgb(0%,0%,0%);stroke-opacity:1;stroke-miterlimit:10;" d="M 223.339844 140.359375 L 218.253906 155.683594 "/>
<path style="fill:none;stroke-width:1.2;stroke-linecap:butt;stroke-linejoin:miter;stroke:rgb(0%,0%,0%);stroke-opacity:1;stroke-miterlimit:10;" d="M 226.515625 171.1875 L 246.28125 167.117188 "/>
<path style="fill:none;stroke-width:1.2;stroke-linecap:butt;stroke-linejoin:miter;stroke:rgb(0%,0%,0%);stroke-opacity:1;stroke-miterlimit:10;" d="M 227.535156 166.128906 L 243.347656 162.875 "/>
<path style="fill:none;stroke-width:1.2;stroke-linecap:butt;stroke-linejoin:miter;stroke:rgb(0%,0%,0%);stroke-opacity:1;stroke-miterlimit:10;" d="M 226.515625 171.1875 L 220.15625 190.335938 "/>
<path style="fill:none;stroke-width:1.2;stroke-linecap:butt;stroke-linejoin:miter;stroke:rgb(0%,0%,0%);stroke-opacity:1;stroke-miterlimit:10;" d="M 246.28125 167.117188 L 252.644531 147.964844 "/>
<path style="fill:none;stroke-width:1.2;stroke-linecap:butt;stroke-linejoin:miter;stroke:rgb(0%,0%,0%);stroke-opacity:1;stroke-miterlimit:10;" d="M 252.644531 147.964844 L 239.238281 132.882812 "/>
<path style="fill:none;stroke-width:1.2;stroke-linecap:butt;stroke-linejoin:miter;stroke:rgb(0%,0%,0%);stroke-opacity:1;stroke-miterlimit:10;" d="M 247.753906 149.613281 L 237.027344 137.542969 "/>
<path style="fill:none;stroke-width:1.2;stroke-linecap:butt;stroke-linejoin:miter;stroke:rgb(0%,0%,0%);stroke-opacity:1;stroke-miterlimit:10;" d="M 239.238281 132.882812 L 219.472656 136.949219 "/>
<path style="fill:none;stroke-width:1.2;stroke-linecap:butt;stroke-linejoin:miter;stroke:rgb(0%,0%,0%);stroke-opacity:1;stroke-miterlimit:10;" d="M 239.238281 132.882812 L 245.597656 113.730469 "/>
<path style="fill:none;stroke-width:1.2;stroke-linecap:butt;stroke-linejoin:miter;stroke:rgb(0%,0%,0%);stroke-opacity:1;stroke-miterlimit:10;" d="M 245.597656 113.730469 L 264.75 120.089844 "/>
<path style="fill:none;stroke-width:1.2;stroke-linecap:butt;stroke-linejoin:miter;stroke:rgb(0%,0%,0%);stroke-opacity:1;stroke-miterlimit:10;" d="M 245.597656 113.730469 L 226.445312 107.371094 "/>
<path style="fill:none;stroke-width:1.2;stroke-linecap:butt;stroke-linejoin:miter;stroke:rgb(0%,0%,0%);stroke-opacity:1;stroke-miterlimit:10;" d="M 245.597656 113.730469 L 251.957031 94.578125 "/>
<path style="fill:none;stroke-width:1.2;stroke-linecap:butt;stroke-linejoin:miter;stroke:rgb(0%,0%,0%);stroke-opacity:1;stroke-miterlimit:10;" d="M 218.382812 191.914062 L 225.085938 199.457031 "/>
<path style="fill:none;stroke-width:1.2;stroke-linecap:butt;stroke-linejoin:miter;stroke:rgb(100%,0%,0%);stroke-opacity:1;stroke-miterlimit:10;" d="M 225.085938 199.457031 L 231.789062 207 "/>
<path style="fill:none;stroke-width:1.2;stroke-linecap:butt;stroke-linejoin:miter;stroke:rgb(0%,0%,0%);stroke-opacity:1;stroke-miterlimit:10;" d="M 221.929688 188.761719 L 228.632812 196.300781 "/>
<path style="fill:none;stroke-width:1.2;stroke-linecap:butt;stroke-linejoin:miter;stroke:rgb(100%,0%,0%);stroke-opacity:1;stroke-miterlimit:10;" d="M 228.632812 196.300781 L 235.335938 203.84375 "/>
<path style="fill:none;stroke-width:1.2;stroke-linecap:butt;stroke-linejoin:miter;stroke:rgb(0%,0%,0%);stroke-opacity:1;stroke-miterlimit:10;" d="M 220.15625 190.335938 L 210.273438 192.371094 "/>
<path style="fill:none;stroke-width:1.2;stroke-linecap:butt;stroke-linejoin:miter;stroke:rgb(0%,0%,100%);stroke-opacity:1;stroke-miterlimit:10;" d="M 210.273438 192.371094 L 200.390625 194.40625 "/>
<path style=" stroke:none;fill-rule:nonzero;fill:rgb(100%,100%,100%);fill-opacity:1;" d="M 229.5625 199.921875 L 237.5625 199.921875 L 237.5625 210.921875 L 229.5625 210.921875 Z M 229.5625 199.921875 "/>
<g style="fill:rgb(100%,0%,0%);fill-opacity:1;">
  <use xlink:href="#glyph0-1" x="229.5625" y="208.584961"/>
</g>
<path style="fill:none;stroke-width:1.2;stroke-linecap:butt;stroke-linejoin:miter;stroke:rgb(0%,0%,100%);stroke-opacity:1;stroke-miterlimit:10;" d="M 200.390625 194.40625 L 193.6875 186.863281 "/>
<path style="fill:none;stroke-width:1.2;stroke-linecap:butt;stroke-linejoin:miter;stroke:rgb(0%,0%,0%);stroke-opacity:1;stroke-miterlimit:10;" d="M 193.6875 186.863281 L 186.984375 179.320312 "/>
<path style=" stroke:none;fill-rule:nonzero;fill:rgb(100%,100%,100%);fill-opacity:1;" d="M 193.390625 188.90625 L 207.390625 188.90625 L 207.390625 199.90625 L 193.390625 199.90625 Z M 193.390625 188.90625 "/>
<g style="fill:rgb(0%,0%,100%);fill-opacity:1;">
  <use xlink:href="#glyph0-2" x="193.390625" y="197.569336"/>
  <use xlink:href="#glyph0-3" x="200.368164" y="197.569336"/>
</g>
<path style="fill:none;stroke-width:1.2;stroke-linecap:butt;stroke-linejoin:miter;stroke:rgb(0%,0%,0%);stroke-opacity:1;stroke-miterlimit:10;" d="M 186.503906 176.996094 L 176.621094 179.027344 "/>
<path style="fill:none;stroke-width:1.2;stroke-linecap:butt;stroke-linejoin:miter;stroke:rgb(100%,0%,0%);stroke-opacity:1;stroke-miterlimit:10;" d="M 176.621094 179.027344 L 166.738281 181.0625 "/>
<path style="fill:none;stroke-width:1.2;stroke-linecap:butt;stroke-linejoin:miter;stroke:rgb(0%,0%,0%);stroke-opacity:1;stroke-miterlimit:10;" d="M 187.460938 181.644531 L 177.578125 183.679688 "/>
<path style="fill:none;stroke-width:1.2;stroke-linecap:butt;stroke-linejoin:miter;stroke:rgb(100%,0%,0%);stroke-opacity:1;stroke-miterlimit:10;" d="M 177.578125 183.679688 L 167.695312 185.714844 "/>
<path style=" stroke:none;fill-rule:nonzero;fill:rgb(100%,100%,100%);fill-opacity:1;" d="M 159.21875 177.886719 L 167.21875 177.886719 L 167.21875 188.886719 L 159.21875 188.886719 Z M 159.21875 177.886719 "/>
<g style="fill:rgb(100%,0%,0%);fill-opacity:1;">
  <use xlink:href="#glyph0-1" x="159.21875" y="186.549805"/>
</g>
</g>
</svg>

<svg xmlns="http://www.w3.org/2000/svg" xmlns:xlink="http://www.w3.org/1999/xlink" width="300pt" height="300pt" viewBox="0 0 300 300"><defs><symbol overflow="visible"><path d="M.453 1.594v-7.938h4.5v7.938zm.5-.5h3.5v-6.938h-3.5zm0 0"/></symbol><symbol overflow="visible" id="a"><path d="M3.547-5.953c-.65 0-1.164.242-1.547.72-.375.48-.563 1.13-.563 1.952 0 .835.188 1.49.563 1.967.383.48.898.72 1.547.72.644 0 1.156-.24 1.53-.72.376-.476.564-1.132.564-1.968 0-.822-.187-1.474-.562-1.954-.375-.477-.887-.72-1.53-.72zm0-.734c.914 0 1.648.312 2.203.937.55.617.828 1.438.828 2.47 0 1.042-.277 1.87-.828 2.483-.555.617-1.29.922-2.203.922-.93 0-1.668-.305-2.22-.922C.774-1.41.5-2.237.5-3.28c0-1.033.273-1.853.828-2.47.55-.625 1.29-.938 2.22-.938zm0 0"/></symbol><symbol overflow="visible" id="b"><path d="M.89-6.563H2.08l2.906 5.485v-5.484h.86V0H4.656L1.75-5.484V0H.89zm0 0"/></symbol><symbol overflow="visible" id="c"><path d="M.89-6.563h.876v2.688H5v-2.688h.89V0H5v-3.125H1.766V0H.89zm0 0"/></symbol></defs><g><path fill="#fff" d="M0 0h300v300H0z"/><path d="M39.316 166.48l10.028 1.122" stroke-width="1.2" stroke="#f00" stroke-miterlimit="10" fill="none"/><path d="M49.344 167.602l10.03 1.117M35.25 146.715l2.035 9.883" stroke-width="1.2" stroke="#000" stroke-miterlimit="10" fill="none"/><path d="M37.285 156.598l2.03 9.882" stroke-width="1.2" stroke="#f00" stroke-miterlimit="10" fill="none"/><path d="M35.316 160.98h8v11h-8zm0 0" fill="#fff"/><use xlink:href="#a" x="35.316" y="169.644" fill="#f00"/><path d="M59.375 168.72l8.324-18.38M55.883 164.922l6.66-14.703M67.7 150.34l-14.907-13.602M67.7 150.34l19.77-4.07M52.793 136.738l-17.543 9.977M53.387 141.863l-14.035 7.98M87.47 146.27l13.405 15.085M92.355 144.625l10.727 12.066M93.828 127.117l-6.36 19.153M100.875 161.355l9.883-2.035" stroke-width="1.2" stroke="#000" stroke-miterlimit="10" fill="none"/><path d="M110.758 159.32l9.883-2.03M120.64 157.29l3.18-9.58" stroke-width="1.2" stroke="#00f" stroke-miterlimit="10" fill="none"/><path d="M123.82 147.71l3.18-9.573" stroke-width="1.2" stroke="#000" stroke-miterlimit="10" fill="none"/><path d="M116.77 153.875l2.543-7.66" stroke-width="1.2" stroke="#00f" stroke-miterlimit="10" fill="none"/><path d="M119.313 146.215l2.546-7.66" stroke-width="1.2" stroke="#000" stroke-miterlimit="10" fill="none"/><path d="M117.64 151.79h7v11h-7zm0 0" fill="#fff"/><use xlink:href="#b" x="117.641" y="160.452" fill="#00f"/><path d="M127 138.137l-13.406-15.086M127 138.137l19.766-4.07M113.594 123.05l-19.766 4.067M112.574 128.11l-15.812 3.253M93.828 127.117l-6.703-7.54" stroke-width="1.2" stroke="#000" stroke-miterlimit="10" fill="none"/><path d="M87.125 119.578l-6.703-7.543" stroke-width="1.2" stroke="#f00" stroke-miterlimit="10" fill="none"/><path d="M65.422 106.535h15v11h-15zm0 0" fill="#fff"/><g fill="#f00"><use xlink:href="#c" x="65.422" y="115.198"/><use xlink:href="#a" x="72.437" y="115.198"/></g><path d="M146.766 134.066l6.703 7.543" stroke-width="1.2" stroke="#000" stroke-miterlimit="10" fill="none"/><path d="M153.47 141.61l6.702 7.542M160.172 149.152l9.883-2.035" stroke-width="1.2" stroke="#00f" stroke-miterlimit="10" fill="none"/><path d="M170.055 147.117l9.882-2.03" stroke-width="1.2" stroke="#000" stroke-miterlimit="10" fill="none"/><path d="M153.172 143.652h14v11h-14zm0 0" fill="#fff"/><g fill="#00f"><use xlink:href="#b" x="153.172" y="152.315"/><use xlink:href="#c" x="160.149" y="152.315"/></g><path d="M179.938 145.086l13.406 15.082M177.73 149.746l10.723 12.07M193.344 160.168l19.765-4.066M193.344 160.168l-6.36 19.152M213.11 156.102l13.406 15.085M219.473 136.95L213.11 156.1M223.34 140.36l-5.086 15.324M226.516 171.188l19.765-4.07M227.535 166.13l15.813-3.255M226.516 171.188l-6.36 19.148M246.28 167.117l6.365-19.152M252.645 147.965l-13.407-15.082M247.754 149.613l-10.727-12.07M239.238 132.883l-19.765 4.066M239.238 132.883l6.36-19.153M245.598 113.73l19.152 6.36M245.598 113.73l-19.153-6.36M245.598 113.73l6.36-19.152M218.383 191.914l6.703 7.543" stroke-width="1.2" stroke="#000" stroke-miterlimit="10" fill="none"/><path d="M225.086 199.457L231.79 207" stroke-width="1.2" stroke="#f00" stroke-miterlimit="10" fill="none"/><path d="M221.93 188.762l6.703 7.54" stroke-width="1.2" stroke="#000" stroke-miterlimit="10" fill="none"/><path d="M228.633 196.3l6.703 7.544" stroke-width="1.2" stroke="#f00" stroke-miterlimit="10" fill="none"/><path d="M220.156 190.336l-9.883 2.035" stroke-width="1.2" stroke="#000" stroke-miterlimit="10" fill="none"/><path d="M210.273 192.37l-9.882 2.036" stroke-width="1.2" stroke="#00f" stroke-miterlimit="10" fill="none"/><path d="M229.563 199.922h8v11h-8zm0 0" fill="#fff"/><use xlink:href="#a" x="229.563" y="208.585" fill="#f00"/><path d="M200.39 194.406l-6.702-7.543" stroke-width="1.2" stroke="#00f" stroke-miterlimit="10" fill="none"/><path d="M193.688 186.863l-6.704-7.543" stroke-width="1.2" stroke="#000" stroke-miterlimit="10" fill="none"/><path d="M193.39 188.906h14v11h-14zm0 0" fill="#fff"/><g fill="#00f"><use xlink:href="#b" x="193.391" y="197.569"/><use xlink:href="#c" x="200.368" y="197.569"/></g><path d="M186.504 176.996l-9.883 2.03" stroke-width="1.2" stroke="#000" stroke-miterlimit="10" fill="none"/><path d="M176.62 179.027l-9.882 2.036" stroke-width="1.2" stroke="#f00" stroke-miterlimit="10" fill="none"/><path d="M187.46 181.645l-9.882 2.035" stroke-width="1.2" stroke="#000" stroke-miterlimit="10" fill="none"/><path d="M177.578 183.68l-9.883 2.035" stroke-width="1.2" stroke="#f00" stroke-miterlimit="10" fill="none"/><path d="M159.22 177.887h8v11h-8zm0 0" fill="#fff"/><use xlink:href="#a" x="159.219" y="186.55" fill="#f00"/></g></svg>
